icons/svg/call-settings_20.svg

<?xml version="1.0" encoding="UTF-8"?>
<svg width="20px" height="20px" viewBox="0 0 20 20" version="1.1" xmlns="http://www.w3.org/2000/svg" xmlns:xlink="http://www.w3.org/1999/xlink">
    <!-- Generator: Sketch 57.1 (83088) - https://sketch.com -->
    <title>call-settings_20</title>
    <desc>Created with Sketch.</desc>
    <g id="Icons-Webex" stroke="none" stroke-width="1" fill="none" fill-rule="evenodd">
        <g id="phone/call-settings_20" fill="#171B1F">
            <g id="call-settings_20">
                <path d="M15.0002,6.0001 C15.5512,6.0001 16.0002,5.5521 16.0002,5.0001 C16.0002,4.4481 15.5512,4.0001 15.0002,4.0001 C14.4492,4.0001 14.0002,4.4481 14.0002,5.0001 C14.0002,5.5521 14.4492,6.0001 15.0002,6.0001 L15.0002,6.0001 Z M15.0002,3.0001 C16.1032,3.0001 17.0002,3.8971 17.0002,5.0001 C17.0002,6.1031 16.1032,7.0001 15.0002,7.0001 C13.8972,7.0001 13.0002,6.1031 13.0002,5.0001 C13.0002,3.8971 13.8972,3.0001 15.0002,3.0001 L15.0002,3.0001 Z M17.9172,5.3761 L19.0002,5.0041 C19.0002,4.9941 18.9962,4.9861 18.9882,4.9841 L17.9162,4.6261 C17.7772,4.5801 17.6672,4.4771 17.6112,4.3421 L17.3132,3.6161 C17.2572,3.4821 17.2642,3.3311 17.3292,3.2011 L17.8342,2.1931 L16.7962,2.6721 C16.6672,2.7361 16.5162,2.7411 16.3812,2.6871 L15.6592,2.3881 C15.5242,2.3321 15.4202,2.2211 15.3752,2.0831 L15.0192,1.0131 L14.6252,2.0821 C14.5802,2.2201 14.4762,2.3311 14.3412,2.3861 L13.6182,2.6861 C13.4832,2.7401 13.3332,2.7361 13.2032,2.6711 L12.1962,2.1671 L12.6722,3.2021 C12.7372,3.3321 12.7442,3.4821 12.6872,3.6161 L12.3902,4.3401 C12.3332,4.4741 12.2242,4.5771 12.0852,4.6231 L11.0142,4.9831 L12.0832,5.3771 C12.2202,5.4231 12.3312,5.5251 12.3862,5.6591 L12.6872,6.3841 C12.7432,6.5181 12.7372,6.6691 12.6722,6.7981 L12.1682,7.8101 L13.2012,7.3331 C13.2712,7.2971 13.3482,7.2791 13.4242,7.2791 C13.4892,7.2791 13.5552,7.2921 13.6162,7.3161 L14.3392,7.6151 C14.4752,7.6711 14.5782,7.7821 14.6242,7.9201 L14.9802,8.9871 L15.3732,7.9211 C15.4172,7.7831 15.5212,7.6721 15.6552,7.6161 L16.3782,7.3151 C16.5142,7.2601 16.6652,7.2651 16.7932,7.3301 L17.8042,7.8331 L17.3262,6.7991 C17.2612,6.6691 17.2552,6.5181 17.3122,6.3841 L17.6112,5.6591 C17.6672,5.5251 17.7782,5.4221 17.9172,5.3761 L17.9172,5.3761 Z M19.3052,4.0351 C19.7202,4.1741 20.0002,4.5631 20.0002,5.0021 L20.0002,5.0041 C20.0002,5.4431 19.7202,5.8321 19.3012,5.9711 L18.4472,6.2531 L18.3222,6.5561 L18.7252,7.3581 C18.9202,7.7531 18.8432,8.2261 18.5342,8.5351 C18.2232,8.8461 17.7502,8.9241 17.3562,8.7281 L16.5512,8.3261 L16.2502,8.4521 L15.9672,9.3021 C15.8292,9.7201 15.4402,10.0001 15.0002,10.0001 C14.5612,10.0001 14.1712,9.7211 14.0332,9.3041 L13.7482,8.4531 L13.4452,8.3281 L12.6462,8.7301 C12.2502,8.9291 11.7772,8.8521 11.4662,8.5401 C11.1572,8.2301 11.0792,7.7581 11.2722,7.3651 L11.6752,6.5571 L11.5502,6.2541 L10.6972,5.9711 C10.2802,5.8321 10.0002,5.4441 10.0002,5.0041 C10.0002,4.5621 10.2792,4.1741 10.6962,4.0351 L11.5512,3.7481 L11.6762,3.4451 L11.2742,2.6421 C11.0792,2.2471 11.1552,1.7741 11.4662,1.4651 C11.7772,1.1541 12.2502,1.0761 12.6442,1.2721 L13.4452,1.6741 L13.7492,1.5491 L14.0332,0.6961 C14.1702,0.2801 14.5602,0.0001 15.0002,0.0001 C15.4382,0.0001 15.8292,0.2791 15.9672,0.6961 L16.2512,1.5501 L16.5552,1.6761 L17.3612,1.2721 C17.7542,1.0751 18.2272,1.1521 18.5382,1.4651 C18.8502,1.7751 18.9262,2.2501 18.7282,2.6441 L18.3252,3.4461 L18.4502,3.7501 L19.3052,4.0351 Z M19.0002,17.8181 L19.0002,15.6261 C19.0002,14.9321 18.5882,14.3061 17.9512,14.0321 L16.0252,13.2041 C15.4032,12.9361 14.7002,12.9571 14.0942,13.2601 L12.9972,13.8081 C12.4342,14.0901 11.7492,14.0151 11.2542,13.6181 C9.3742,12.1091 7.5892,10.3361 6.3582,8.7541 C5.9732,8.2581 5.9042,7.5791 6.1822,7.0241 L6.7412,5.9071 C7.0432,5.3011 7.0632,4.5971 6.7962,3.9761 L5.9682,2.0501 C5.6942,1.4121 5.0682,1.0001 4.3752,1.0001 L2.1822,1.0001 C1.8142,1.0001 1.4732,1.1671 1.2472,1.4581 C1.0242,1.7431 0.9482,2.1071 1.0362,2.4541 C1.8522,5.6681 4.1732,9.3651 7.4042,12.5961 C10.6352,15.8261 14.3312,18.1471 17.5452,18.9641 C17.8932,19.0521 18.2572,18.9761 18.5422,18.7541 C18.8332,18.5271 19.0002,18.1861 19.0002,17.8181 L19.0002,17.8181 Z M18.3462,13.1131 C19.3512,13.5461 20.0002,14.5311 20.0002,15.6261 L20.0002,17.8181 C20.0002,18.4971 19.6922,19.1261 19.1562,19.5431 C18.7702,19.8431 18.3072,20.0001 17.8332,20.0001 C17.6562,20.0001 17.4772,19.9781 17.2992,19.9331 C13.9162,19.0731 10.0512,16.6571 6.6972,13.3031 C3.3422,9.9481 0.9262,6.0841 0.0672,2.7001 C-0.0978,2.0511 0.0442,1.3751 0.4572,0.8441 C0.8752,0.3081 1.5032,0.0001 2.1822,0.0001 L4.3752,0.0001 C5.4692,0.0001 6.4552,0.6501 6.8872,1.6551 L7.7152,3.5801 C8.0992,4.4731 8.0702,5.4841 7.6352,6.3541 L7.0772,7.4711 C6.9682,7.6881 6.9962,7.9441 7.1482,8.1401 C8.3152,9.6401 10.0842,11.3971 11.8802,12.8381 C12.0712,12.9911 12.3352,13.0211 12.5502,12.9141 L13.6462,12.3651 C14.5162,11.9301 15.5272,11.9011 16.4202,12.2851 L18.3462,13.1131 Z" id="fill"></path>
            </g>
        </g>
    </g>
</svg>

<svg width="20" height="20" xmlns="http://www.w3.org/2000/svg"><path d="M15 6a1.001 1.001 0 000-2 1.001 1.001 0 000 2zm0-3c1.103 0 2 .897 2 2s-.897 2-2 2-2-.897-2-2 .897-2 2-2zm2.917 2.376L19 5.004c0-.01-.004-.018-.012-.02l-1.072-.358a.499.499 0 01-.305-.284l-.298-.726a.498.498 0 01.016-.415l.505-1.008-1.038.48a.509.509 0 01-.415.014l-.722-.299a.498.498 0 01-.284-.305l-.356-1.07-.394 1.07a.494.494 0 01-.284.303l-.723.3a.505.505 0 01-.415-.015l-1.007-.504.476 1.035c.065.13.072.28.015.414l-.297.724a.502.502 0 01-.305.283l-1.07.36 1.068.394a.497.497 0 01.303.282l.301.725a.495.495 0 01-.015.414l-.504 1.012 1.033-.477a.489.489 0 01.415-.017l.723.3a.5.5 0 01.285.304l.356 1.067.393-1.066a.495.495 0 01.282-.305l.723-.3a.5.5 0 01.415.014l1.011.503-.478-1.034a.494.494 0 01-.014-.415l.3-.725a.501.501 0 01.305-.283zm1.388-1.34c.415.138.695.527.695.966v.002c0 .44-.28.828-.699.967l-.854.282-.125.303.403.802a1.023 1.023 0 01-1.369 1.37l-.805-.402-.3.126-.284.85A1.016 1.016 0 0115 10c-.439 0-.829-.279-.967-.696l-.285-.85-.303-.126-.799.402a1.016 1.016 0 01-1.18-.19 1.025 1.025 0 01-.194-1.175l.403-.808-.125-.303-.853-.283A1.017 1.017 0 0110 5.004c0-.442.28-.83.696-.969l.855-.287.125-.303-.402-.803a1.02 1.02 0 011.37-1.37l.801.402.304-.125.284-.853C14.17.28 14.56 0 15 0c.438 0 .83.28.967.696l.284.854.304.126.806-.404c.393-.197.866-.12 1.177.193.312.31.388.785.19 1.18l-.403.801.125.304.855.285zM19 17.817v-2.192c0-.694-.412-1.32-1.049-1.594l-1.926-.828a2.285 2.285 0 00-1.93.056l-1.098.548a1.63 1.63 0 01-1.743-.19c-1.88-1.509-3.665-3.282-4.896-4.864a1.64 1.64 0 01-.176-1.73l.56-1.117c.301-.606.321-1.31.054-1.93L5.968 2.05A1.733 1.733 0 004.375 1H2.182c-.368 0-.709.167-.935.458a1.15 1.15 0 00-.21.996c.815 3.214 3.136 6.911 6.367 10.142 3.231 3.23 6.927 5.551 10.141 6.368.348.088.712.012.997-.21a1.18 1.18 0 00.458-.936zm-.654-4.705A2.733 2.733 0 0120 15.626v2.192c0 .68-.308 1.308-.844 1.725a2.15 2.15 0 01-1.857.39c-3.383-.86-7.248-3.276-10.602-6.63C3.342 9.948.927 6.084.067 2.7A2.143 2.143 0 01.457.844 2.174 2.174 0 012.182 0h2.193c1.094 0 2.08.65 2.512 1.655l.828 1.925a3.287 3.287 0 01-.08 2.774l-.558 1.117a.625.625 0 00.071.67c1.167 1.5 2.936 3.256 4.732 4.697a.63.63 0 00.67.076l1.096-.549a3.287 3.287 0 012.774-.08l1.926.828z" fill="#171B1F" fill-rule="evenodd"/></svg>
